X:3746
T:Log Cabin, The
O:england
R:reel
D:De Danann: Selected Reels, Jigs and Songs
M:C|
K:Dmix
A,D~D2 FGAB|=cDEF GAB^c|d2^cd BdAF|GEFD EFDB,|
A,D~D2 FGAB|=cDEF GAB^c|d2^cd BdAF|1 GFEG FDDB,:|2 GFEG FD~D2||
|:d2fd Adfd|g2fg egfe|d2fd AB=cA|GE~E2 =CDEG|
d2fd Adfd|(3B^cd ef g2ag|f2e^c dBAG|1 FGEF D4:|2 FGEF ~D3B,||
